!!!SOCIAL_FUNCTION:	hunting songs
!!!PDT:	1929
!!!OTL: No_161_Song_of_an_Unsuccessful_Hunter.krn
!!!REG: Southwest
!!!LANG: Non-Tone
!!!LING_GROUP: Uto-Aztecan
**kern
*staff1
=1-
*clefF4
*k[f#c#]
*M2/4
2A\
=2
4e\
4e\
=3
2d\
=4
(8B\L
8A\J)
8d\L
8B\J
=5||
*M3/4
2d\
4B\
=6||
*M2/4
2A\
=7
2e\
=8
4d\
4d\
=9
4.B\
8A\
=10
4B\
8B\L
8F#\J
=11||
*M3/4
2A\
4F#\
=12||
*M2/4
4E\
4r
=13
4.d\
8B\
=14
4d\
4d\
=15
4.B\
8A\
=16
4B\
8B\L
8F#\J
=17
2A\
=18
8F#\L
8E\J
8E\
8r
=19
4A\
4B\
=20
8A\L
8F#\J
4F#\
=21
4D\
8A\L
8F#\J
=22||
*M3/4
2A\
4A\
=23
2.A\
==
*-
